!!!!SEGMENT: pl-sa--228-a-vi-32--010_luna-georgius--litania-ex-d-rosa-mistica.krn
!!!cenid: 17xx:455
!!!COM: Luna, Georgius
!!!COM-rismID: pe41010079
!!!CDT:
!!!CNT:
!!!OPR: Litania ex D
!!!OTL: Rosa mistica
!!!OMV: 010
!!!PDT:
!!!AGN: Sacred; Mass
!!!SMS-siglum: PL-SA
!!!SMS-shelfmark: 228/A VI 32
!!!SMS-shelfwork: 001-010 M
!!!SMS-variant: Violino Primo: PL-SA 228/A VI 32:14-13
!!!SMS-altvar: Violino Imo: PL-SA 228/A VI 32:31
!!!NIFC-rismSourceID: 1001068968
!!!NIFC-rismChildID: 1001068968
!!!NIFC-islandoraID: none
!!!URL-pdf-islandora:
!!!URL-scan: https://bc.bdsandomierz.pl/dlibra/publication/1604/edition/1572/content @EN{Scan in the Sandomierz Diocese Digital Library} @PL{Skany w portalu Cyfrowa Biblioteka Diecezjalna w Sandomierzu}
!!!ONB-nifc: UWAGA: części Litanii: Sinfonia, Kyrie, Pater de caelis, Sancta trinitas, Sancta Maria,
!!!AIN: 3 empty 1 tenor 2 violn 1 vox
!!!key:
**kern	**kern	**kern	**kern	**text	**kern	**text	**kern	**kern
*part7	*part6	*part5	*part4	*part4	*part3	*part3	*part2	*part1
*staff7	*staff6	*staff5	*staff4	*staff4	*staff3	*staff3	*staff2	*staff1
*Iempty	*Ivioln	*Ivioln	*Itenor	*	*Ivox	*	*Iempty	*Iempty
*I"Fondamemto	*I"Violino Secundo	*I"Violino Primo	*I"Tenore	*	*I"Canto	*	*I"Clarino Socundo	*I"Clarino Primo
*I'bc	*I'vl 2	*I'vl 1	*I'T	*	*I'S	*	*I'clno 2 in D	*I'clno 1 in D
*clefF4	*clefG2	*clefG2	*clefC4	*	*clefC1	*	*clefG2	*clefG2
*	*	*	*	*	*	*	*ITrd-1c-2	*ITrd-1c-2
*k[f#c#]	*k[f#c#]	*k[f#c#]	*k[f#c#]	*	*k[f#c#]	*	*k[f#c#]	*k[f#c#]
*D:	*D:	*D:	*D:	*	*D:	*	*D:	*D:
*M4/4	*M4/4	*M4/4	*M4/4	*	*M4/4	*	*M4/4	*M4/4
*met(c)	*met(c)	*met(c)	*met(c)	*	*met(c)	*	*met(c)	*met(c)
=1	=1	=1	=1	=1	=1	=1	=1	=1
*2\right	*	*	*	*	*	*	*	*
!	!	!LO:TX:a:t=P:problem=w źródle podwójny odpis skrzypiec pierwszych w tej samej tonacji	!	!	!	!	!	!
!	!	!	!	!	!	!	!LO:TX:a:t=P:problem=pominięty fragment; w źródle brak patrii Clarino Socondo dla tej części utworu	!
!LO:TX:a:i:t=Allo	!LO:TX:a:i:t=Allo&colon;	!LO:TX:a:i:t=Allo	!LO:TX:a:i:t=Allo	!	!LO:TX:a:i:t=Allo&colon;	!	!	!LO:TX:a:i:t=Allo
!LO:TX:b:Bi:t=Rosa:rj	!LO:TX:b:Bi:t=Rosa:rj	!LO:TX:b:Bi:t=Rosa:rj	!	!	!	!	!	!LO:TX:b:Bi:t=Rosa:rj
16D\LL	8ddd\L	8ddd\L	00r	.	00r	.	1ryy	4ff#\
16E\	.	.	.	.	.	.	.	.
16F#\	8dd\J	8dd\J	.	.	.	.	.	.
16E\JJ	.	.	.	.	.	.	.	.
8D\L	16dd\LL	16dd\LL	.	.	.	.	.	4r
.	16ff#\	16ff#\	.	.	.	.	.	.
8D\J	16ee\	16ee\	.	.	.	.	.	.
.	16dd\JJ	16dd\JJ	.	.	.	.	.	.
16D\LL	16aa\LL	16aa\LL	.	.	.	.	.	4ff#\
16E\	16ff#\J	16ff#\J	.	.	.	.	.	.
16F#\	8dd\J	8dd\J	.	.	.	.	.	.
16E\JJ	.	.	.	.	.	.	.	.
8D\L	16dd\LL	16dd\LL	.	.	.	.	.	8r
.	16ff#\	16ff#\	.	.	.	.	.	.
8D\J	16ee\	16ee\	.	.	.	.	.	8ff#\
.	16dd\JJ	16dd\JJ	.	.	.	.	.	.
=2	=2	=2	=2	=2	=2	=2	=2	=2
16AA/LL	16ee\LL	16ee\LL	.	.	.	.	1ryy	4ee\
16BB/	16cc#\J	16cc#\J	.	.	.	.	.	.
16C#/	8a\J	[>8a\J	.	.	.	.	.	.
16BB/JJ	.	.	.	.	.	.	.	.
8AA/L	16a\LL	16a\LL]	.	.	.	.	.	8r
.	16gg\	16gg\	.	.	.	.	.	.
8AA/J	16ff#\	16ff#\	.	.	.	.	.	8ee\
.	16ee\JJ	16ee\JJ	.	.	.	.	.	.
!	!	!LO:LB:g=original	!	!	!	!	!	!
16D\LL	16ff#\LL	16ff#\LL	.	.	.	.	.	4ff#\
16E\	16ee\J	16ee\J	.	.	.	.	.	.
16F#\	8dd\J	8dd\J	.	.	.	.	.	.
16E\JJ	.	.	.	.	.	.	.	.
8D\L	16dd\LL	16dd\LL	.	.	.	.	.	8r
.	16ff#\	16ff#\	.	.	.	.	.	.
8D\J	16ee\	16ee\	.	.	.	.	.	8ff#\
.	16dd\JJ	16dd\JJ	.	.	.	.	.	.
=3	=3	=3	=3	=3	=3	=3	=3	=3
16AA/LL	16ee\LL	16ee\LL	.	.	.	.	1ryy	4ee\
16BB/	16cc#\J	16cc#\J	.	.	.	.	.	.
16C#/	8a\J	[>8a\J	.	.	.	.	.	.
16BB/JJ	.	.	.	.	.	.	.	.
8AA/L	16a\LL	16a\LL]	.	.	.	.	.	8r
.	16gg\	16gg\	.	.	.	.	.	.
8AA/J	16ff#\	16ff#\	.	.	.	.	.	8ee\
.	16ee\JJ	16ee\JJ	.	.	.	.	.	.
16D\LL	16ff#\LL	16ff#\LL	.	.	.	.	.	16ff#\LL
16E\	16ee\J	16ee\J	.	.	.	.	.	16gg\
16F#\	8dd\J	8dd\J	.	.	.	.	.	16ff#\
16E\JJ	.	.	.	.	.	.	.	16gg\JJ
8D\L	4r	4r	.	.	.	.	.	16aa\LL
.	.	.	.	.	.	.	.	16gg\
8D\J	.	.	.	.	.	.	.	16aa\
.	.	.	.	.	.	.	.	16gg\JJ
!LO:LB:g=original	!	!	!	!	!	!	!	!
=4	=4	=4	=4	=4	=4	=4	=4	=4
4D\	8ddd\L	8ddd\L	.	.	.	.	1ryy	4ff#\
.	8aa\	8aa\	.	.	.	.	.	.
4r	8ff#\	8ff#\	.	.	.	.	.	4r
.	8dd\J	8dd\J	.	.	.	.	.	.
8d\L	8dd\L	8dd\L	.	.	.	.	.	8dd/L
8A\	8a\J	8a\J	.	.	.	.	.	8a/
8F#\	8f#/L	8f#/L	.	.	.	.	.	8f#/
8D\J	8d/J	8d/J	.	.	.	.	.	8d/J
=5	=5	=5	=5	=5	=5	=5	=5	=5
8G#X\L	8dd\L	8ffn\L	00r	.	00r	.	1ryy	2r
8G#\	8dd\	8ff\	.	.	.	.	.	.
8G#\	8dd\	8ff\	.	.	.	.	.	.
8G#\J	8dd\J	8ff\J	.	.	.	.	.	.
!LO:TX:a:t=P:problem=mixed beam	!	!	!	!	!	!	!	!
8A\L	16cc#\LL	(>16ee\LL	.	.	.	.	.	8ee\L
.	16a\	16a\JJ)	.	.	.	.	.	.
8AA/	(>16aa\	(>16aa\LL	.	.	.	.	.	16ee\L
.	16gg#X\JJ)	16gg#X\JJ)	.	.	.	.	.	16ee\JJ
8C#/	16aa\LL	16aa\LL	.	.	.	.	.	4ee\
.	16gg#X\J	16gg#X\J	.	.	.	.	.	.
8AA/J	8aa\J	8aa\J	.	.	.	.	.	.
=6	=6	=6	=6	=6	=6	=6	=6	=6
*	*	*tremolo	*	*	*	*	*	*
!	!LO:TX:a:t=P:problem=w źródle wymazany fragment taktu przez skryptora	!	!	!	!	!	!	!
!LO:TX:a:t=P:problem=pominięty fragment	!	!	!	!	!	!	!	!
!	!LO:N:vis=4	!	!	!	!	!	!	!
1ryy	8dd\	(>16ffn'>\LL	.	.	.	.	1ryy	2r
.	.	16ffn'>\	.	.	.	.	.	.
!	!LO:N:vis=4	!	!	!	!	!	!	!
.	8dd\	16ffn'>\	.	.	.	.	.	.
.	.	16ffn'>\JJ	.	.	.	.	.	.
.	16dd\LL	16ff'>\LL	.	.	.	.	.	.
.	16dd\	16ff'>\	.	.	.	.	.	.
.	16dd\	16ff'>\	.	.	.	.	.	.
.	16dd\JJ	16ff'>\JJ)	.	.	.	.	.	.
*	*	*Xtremolo	*	*	*	*	*	*
.	8cc#\L	8ee\L	.	.	.	.	.	8ee\L
.	8a\J	8a\J	.	.	.	.	.	16ee\L
.	.	.	.	.	.	.	.	16ee\JJ
.	8r	8r	.	.	.	.	.	8ee\L
.	8ee\	8ee\	.	.	.	.	.	8ee\J
!	!LO:LB:g=original	!	!	!	!	!	!	!
=7	=7	=7	=7	=7	=7	=7	=7	=7
8D\L	(>32ff#\LLL	(>32ff#\LLL	.	.	.	.	1ryy	16ff#\LL
.	32ee\J)	32ee\J)	.	.	.	.	.	.
.	16dd'>\	(>16dd'\	.	.	.	.	.	16gg\
8d\	16dd'>\	16dd'\	.	.	.	.	.	16ff#\
.	16dd'>\JJ	16dd'\JJ)	.	.	.	.	.	16gg\JJ
*	*tremolo	*tremolo	*	*	*	*	*	*
8c#\	16dd\LL	16dd\LL	.	.	.	.	.	16aa\LL
.	16dd\	16dd\	.	.	.	.	.	16gg\
8c#\J	16dd\	16dd\	.	.	.	.	.	16aa\
.	16dd\JJ	16dd\JJ	.	.	.	.	.	16gg\JJ
*	*Xtremolo	*Xtremolo	*	*	*	*	*	*
8B\L	(>32ff#\LLL	(>32ff#\LLL	.	.	.	.	.	16ff#\LL
.	32ee\J)	32ee\J)	.	.	.	.	.	.
.	16dd'>\	16dd\	.	.	.	.	.	16gg\
8B\	16dd'>\	16dd\	.	.	.	.	.	16ff#\
.	16dd'>\JJ	16dd\JJ	.	.	.	.	.	16gg\JJ
*	*tremolo	*tremolo	*	*	*	*	*	*
8F#\	16dd\LL	16dd\LL	.	.	.	.	.	16aa\LL
.	16dd\	16dd\	.	.	.	.	.	16gg\
8F#\J	16dd\	16dd\	.	.	.	.	.	16aa\
.	16dd\JJ	16dd\JJ	.	.	.	.	.	16ff#\JJ
*	*Xtremolo	*Xtremolo	*	*	*	*	*	*
=8	=8	=8	=8	=8	=8	=8	=8	=8
!LO:TX:a:t=P:problem=mixed beam	!	!	!	!	!	!	!	!
8G\L	8bb\L	8bb\L	.	.	.	.	1ryy	8ee\L
8G\	8bb\J	8bb\J	.	.	.	.	.	8ee\
8A\	16aa\LL	16aa\LL	.	.	.	.	.	8ee\
.	16gg\	16gg\	.	.	.	.	.	.
8AA/J	16ff#\	16ff#\	.	.	.	.	.	8ee\J
.	16ee\JJ	16ee\JJ	.	.	.	.	.	.
!	!LO:TX:a:t=P:problem=mixed beam	!LO:TX:a:t=P:problem=mixed beam	!	!	!	!	!	!
8D\L	8dd\L	8dd\L	.	.	.	.	.	8ff#\L
8D\J	16d/L	16d/L	.	.	.	.	.	16ff#\L
.	16d/JJ	16d/JJ	.	.	.	.	.	16ff#\JJ
4D\	4d/	4d/	.	.	.	.	.	4ff#\
!	!	!	!	!	!	!	!	!LO:LB:g=original
=9	=9	=9	=9	=9	=9	=9	=9	=9
16D\LL	8ddd\L	8ddd\L	4d\	Ro-	4ff#\	Ro-	1ryy	4ff#\
16E\	.	.	.	.	.	.	.	.
16F#\	8dd\J	8dd\J	.	.	.	.	.	.
16E\JJ	.	.	.	.	.	.	.	.
8D\L	16dd\LL	16dd\LL	4d\	-sa	4ff#\	-sa	.	4r
.	16ff#\	16ff#\	.	.	.	.	.	.
8D\J	16ee\	16ee\	.	.	.	.	.	.
.	16dd\JJ	16dd\JJ	.	.	.	.	.	.
!	!	!LO:LB:g=original	!	!	!	!	!	!
16D\LL	16aa\LL	16aa\LL	8d\	mis-	8ff#\	mis-	.	4ff#\
16E\	16ff#\J	16ff#\J	.	.	.	.	.	.
16F#\	8dd\J	[>8dd\J	8d\	-ti-	8ff#\	-ti-	.	.
!LO:TX:a:t=e:problem=wysokość poprawiana przez skryptora	!	!	!	!	!	!	!	!
16E\JJ	.	.	.	.	.	.	.	.
8D\L	16dd\LL	16dd\LL]	4d\	-ca	4ff#\	-ca	.	8r
.	16ff#\	16ff#\	.	.	.	.	.	.
8D\J	16ee\	16ee\	.	.	.	.	.	8ff#\
.	16dd\JJ	16dd\JJ	.	.	.	.	.	.
=10	=10	=10	=10	=10	=10	=10	=10	=10
16A\LL	16ee\LL	16ee\LL	4c#\	tu-	4ee\	tu-	1ryy	4ee\
16B\	16cc#\J	16cc#\J	.	.	.	.	.	.
16c#\	8a\J	8a\J	.	.	.	.	.	.
16B\JJ	.	.	.	.	.	.	.	.
!	!LO:TX:a:t=P:problem=mixed beam	!	!	!	!	!	!	!
8A\L	16a/LL	16a\LL	8c#\	-ris	8ee\	-ris	.	8r
.	16gg\	16gg\	.	.	.	.	.	.
8A\J	16ff#\	16ff#\	8c#\	da-	8ee\	da-	.	8ee\
.	16ee\JJ	16ee\JJ	.	.	.	.	.	.
16D\LL	16ff#\LL	16ff#\LL	8d\	-vi-	8ff#\	-vi-	.	4ff#\
16E\	16ee\J	16ee\J	.	.	.	.	.	.
16F#\	8dd\J	8dd\J	8d\	-di-	8ff#\	-di-	.	.
16E\JJ	.	.	.	.	.	.	.	.
8D\L	16dd\LL	16dd\LL	4d\	-ca	4ff#\	-ca	.	8r
.	16ff#\	16ff#\	.	.	.	.	.	.
8D\J	16ee\	16ee\	.	.	.	.	.	8ff#\
.	16dd\JJ	16dd\JJ	.	.	.	.	.	.
=11	=11	=11	=11	=11	=11	=11	=11	=11
16A\LL	16ee\LL	16ee\LL	4c#\	o-	4ee\	o-	1ryy	4ee\
16B\	16cc#\J	16cc#\J	.	.	.	.	.	.
16c#\	8a\J	[>8a\J	.	.	.	.	.	.
16B\JJ	.	.	.	.	.	.	.	.
8A\L	16a\LL	16a\LL]	8c#\	-ra	8ee\	-ra	.	8r
.	16gg\	16gg\	.	.	.	.	.	.
8A\J	16ff#\	16ff#\	8c#\	pro	8ee\	pro	.	8ee\
.	16ee\JJ	16ee\JJ	.	.	.	.	.	.
16D\LL	16ff#\LL	16ff#\LL	4d\	no-	4ff#\	no-	.	16ff#\LL
16E\	16ee\J	16ee\J	.	.	.	.	.	16gg\
16F#\	8dd\J	8dd\J	.	.	.	.	.	16ff#\
16E\JJ	.	.	.	.	.	.	.	16gg\JJ
8D\L	4r	4r	4d\	-bis	4ff#\	-bis	.	16aa\LL
.	.	.	.	.	.	.	.	16gg\
8D\J	.	.	.	.	.	.	.	16aa\
.	.	.	.	.	.	.	.	16gg\JJ
!LO:LB:g=original	!	!	!	!	!	!	!	!
=12	=12	=12	=12	=12	=12	=12	=12	=12
8D\L	8ddd\L	8ddd\L	4d\	tu-	4ff#\	tu-	1ryy	4ff#\
8F#\	8aa\	8aa\	.	.	.	.	.	.
8A\	8ff#\	8ff#\	8d\	-ris	8ff#\	-ris	.	4r
8d\J	8dd\J	8dd\J	8d\	e-	8ff#\	e-	.	.
8d\L	8dd\L	8dd\L	8d\	-bur-	8ff#\	-bur-	.	8dd/L
8A\	8a\J	8a\J	8d\	-ne-	8ff#\	-ne-	.	8a/
8F#\	8f#/L	8f#/L	4d\	-a	4ff#\	-a	.	8f#/
8D\J	8d/J	8d/J	.	.	.	.	.	8d/J
=13	=13	=13	=13	=13	=13	=13	=13	=13
!LO:SIC:s=8G#:v	!	!	!	!	!	!	!	!
8G\L	8dd\L	8ffn\L	4d\	o-	4ffn\	o-	1ryy	2r
!LO:SIC:s=8G#:v	!	!	!	!	!	!	!	!
8G\	8dd\	8ff\	.	.	.	.	.	.
!LO:SIC:s=8G#:v	!	!	!	!	!	!	!	!
8G\	8dd\	8ff\	8d\	-ra	8ff\	-ra	.	.
!LO:SIC:s=8G#:v	!	!	!	!	!	!	!	!
8G\J	8dd\J	8ff\J	8d\	pro	8ff\	pro-	.	.
!	!	!	!LO:LB:g=original	!	!	!	!	!
!LO:TX:a:t=P:problem=mixed beam	!	!	!	!	!	!	!	!
8A\L	16cc#\LL	16ee\LL	4c#\	no-	4ee\	-no-	.	8ee\L
.	16a\	16a\	.	.	.	.	.	.
8AA/	16aa\	(>16aa\	.	.	.	.	.	16ee\L
.	16gg#X\JJ	16gg#X\JJ)	.	.	.	.	.	16ee\JJ
!	!LO:LB:g=original	!	!	!	!	!	!	!
8AA/	16aa\LL	16aa\LL	4c#\	-bis	4ee\	-bis	.	4ee\
.	16gg#X\J	16gg#\J	.	.	.	.	.	.
8AA/J	8aa\J	8aa\J	.	.	.	.	.	.
=14	=14	=14	=14	=14	=14	=14	=14	=14
*	*tremolo	*tremolo	*	*	*	*	*	*
!LO:SIC:s=8G#:v	!	!	!	!	!LO:SIC:s=4ffn:v	!	!	!
8G\L	16dd\LL	16ffn\LL	4d\	o-	4ff#\	o-	1ryy	2r
.	16dd\	16ffn\	.	.	.	.	.	.
!LO:SIC:s=8G#:v	!	!	!	!	!	!	!	!
8G\	16dd\	16ffn\	.	.	.	.	.	.
.	16dd\JJ	16ffn\JJ	.	.	.	.	.	.
!	!	!	!	!	!LO:LB:g=original	!	!	!
!LO:SIC:s=8G#:v	!	!	!	!	!	!	!	!
8G\	16dd\LL	16ff\LL	8d\	-ra	8ffn\	-ra	.	.
.	16dd\	16ff\	.	.	.	.	.	.
!LO:SIC:s=8G#:v	!	!	!	!	!	!	!	!
8G\J	16dd\	16ff\	8d\	pro	8ff\	pro	.	.
.	16dd\JJ	16ff\JJ	.	.	.	.	.	.
*	*Xtremolo	*Xtremolo	*	*	*	*	*	*
!LO:TX:a:t=P:problem=mixed beam	!	!	!	!	!	!	!	!
8A\L	8cc#\L	8ee\L	4c#\	no-	4ee\	no-	.	8ee\L
8AA/	8a\J	8a\J	.	.	.	.	.	16ee\L
.	.	.	.	.	.	.	.	16ee\JJ
8AA/	8r	8r	4c#\	-bis	4ee\	-bis	.	4ee\
8A\J	8ee\	8ee\	.	.	.	.	.	.
=15	=15	=15	=15	=15	=15	=15	=15	=15
8d\L	(>32dd\LLL	(>32ff#\LLL	4d\	Do-	4ff#X\	Do-	1ryy	8r
.	32ee\J)	32ee\J	.	.	.	.	.	.
.	16ff#'>\	16dd'>\	.	.	.	.	.	.
8d\	16ff#'>\	16dd'>\	.	.	.	.	.	16ff#\LL
.	16ff#'>\JJ	16dd'>\JJ)	.	.	.	.	.	16ff#\JJ
*	*tremolo	*tremolo	*	*	*	*	*	*
8B\	16ff#\LL	16dd\LL	4d\	-mus	4ff#\	-mus	.	8ff#\L
.	16ff#\	16dd\	.	.	.	.	.	.
8B\J	16ff#\	16dd\	.	.	.	.	.	8ff#\J
.	16ff#\JJ	16dd\JJ	.	.	.	.	.	.
*	*Xtremolo	*Xtremolo	*	*	*	*	*	*
8c#\L	(>32cc#\LLL	(>32ee\LLL	8c#\	au-	8ee\	au-	.	8r
.	32dd\J)	32dd\J	.	.	.	.	.	.
.	16ee'>\	16cc#'>\	.	.	.	.	.	.
8c#\	16ee'>\	16cc#'>\	8c#\	-re-	8ee\	-re-	.	16ee\LL
.	16ee'>\JJ	16cc#'>\JJ)	.	.	.	.	.	16ee\JJ
*	*tremolo	*tremolo	*	*	*	*	*	*
8A\	16ee\LL	16cc#\LL	4c#\	-a	4ee\	-a	.	8ee\L
.	16ee\	16cc#\	.	.	.	.	.	.
8A\J	16ee\	16cc#\	.	.	.	.	.	8ee\J
.	16ee\JJ	16cc#\JJ	.	.	.	.	.	.
*	*Xtremolo	*Xtremolo	*	*	*	*	*	*
!	!	!LO:LB:g=original	!	!	!	!	!	!
=16	=16	=16	=16	=16	=16	=16	=16	=16
8B\L	(>32b\LLL	(>32dd\LLL	4B\	fe-	4dd\	fe-	1ryy	8r
.	32cc#\J)	32cc#\J	.	.	.	.	.	.
.	16dd'>\	16b'>\	.	.	.	.	.	.
8B\	16dd'>\	16b'>\	.	.	.	.	.	16ee\LL
.	16dd'>\JJ	16b'>\JJ)	.	.	.	.	.	16ee\JJ
*	*tremolo	*tremolo	*	*	*	*	*	*
8G#X\	16dd\LL	16b\LL	8B\	-de-	8dd\	-de-	.	8ee\L
.	16dd\	16b\	.	.	.	.	.	.
8G#\J	16dd\	16b\	8B\	-ris	8dd\	-ris	.	8ee\J
.	16dd\JJ	16b\JJ	.	.	.	.	.	.
*	*Xtremolo	*Xtremolo	*	*	*	*	*	*
!LO:TX:a:t=P:problem=mixed beam	!	!	!	!	!	!	!	!
8A\L	(>32a\LLL	(>32cc#\LLL	4A\	ar-	4cc#\	ar-	.	8r
.	32b\J)	32b\J	.	.	.	.	.	.
.	16cc#'>\	16a'>\	.	.	.	.	.	.
8A\	16cc#'>\	16a'>\	.	.	.	.	.	16ee\LL
.	16cc#'>\JJ	16a'>\JJ)	.	.	.	.	.	16ee\JJ
*	*tremolo	*tremolo	*	*	*	*	*	*
8AA/	16cc#\LL	16a\LL	4A\	-ca	4cc#\	-ca	.	8ee\L
.	16cc#\	16a\	.	.	.	.	.	.
8AA/J	16cc#\	16a\	.	.	.	.	.	8ee\J
.	16cc#\JJ	16a\JJ	.	.	.	.	.	.
*	*Xtremolo	*Xtremolo	*	*	*	*	*	*
!	!	!	!	!	!	!	!	!LO:LB:g=original
=17	=17	=17	=17	=17	=17	=17	=17	=17
8AA/L	16ff#\LL	16ff#\LL	4c#\	o-	4aa\	o-	1ryy	4ff#\
.	16aa\JJ	16aa\	.	.	.	.	.	.
8AA/	16gg#X\LL	16gg#X\	.	.	.	.	.	.
.	16bb\JJ	16bb\JJ	.	.	.	.	.	.
8D/	16aa\LL	16aa\LL	8d\	-ra	8ff#\	-ra	.	4r
.	16ff#\	16ff#\	.	.	.	.	.	.
8BB/J	16ee\	16ee\	8B\	pro	8dd\	pro	.	.
.	16dd\JJ	16dd\JJ	.	.	.	.	.	.
4E\	4cc#\	4cc#\	4A\	.	4cc#\	no-	.	4aa\
!	!	!	!LO:TX:a:t=t	!	!	!	!	!
4EE/	4bT>\	4bT>\	4G#X/	no-	4b\	.	.	4gg#X\
=18	=18	=18	=18	=18	=18	=18	=18	=18
8AA/L	8a/L	8a\L	4A\	-bis	4a\	-bis	1ryy	4aa\
8D#X/	8a/	8ccn\	.	.	.	.	.	.
8D#/	8a/	8cc\	4r	.	4r	.	.	4r
8D#/J	8a/J	8cc\J	.	.	.	.	.	.
*tremolo	*	*	*	*	*	*	*	*
!	!LO:TX:a:t=P:problem=mixed beam	!	!	!	!	!	!	!
8E\L	16g#X/LL	16b/LL	2r	.	2r	.	.	8ee\L
.	16e/	16e/JJ	.	.	.	.	.	.
8E\	(>16ee\	(>16ee\LL	.	.	.	.	.	16ee\L
.	16dd#X\JJ)	16dd#X\JJ)	.	.	.	.	.	16ee\JJ
8E\	(>16ee\LL	(>16ee\LL	.	.	.	.	.	4ee\
.	16dd#\J)	16dd#\J)	.	.	.	.	.	.
8E\J	8ee\J	8ee\J	.	.	.	.	.	.
=19	=19	=19	=19	=19	=19	=19	=19	=19
*	*tremolo	*tremolo	*	*	*	*	*	*
8D#X\L	16a/LL	16ccn\LL	0r	.	0r	.	1ryy	2r
.	16a/	16ccn\	.	.	.	.	.	.
8D#X\	16a/	16ccn\	.	.	.	.	.	.
.	16a/JJ	16ccn\JJ	.	.	.	.	.	.
8D#X\	16a/LL	16cc\LL	.	.	.	.	.	.
.	16a/	16cc\	.	.	.	.	.	.
8D#X\J	16a/	16cc\	.	.	.	.	.	.
.	16a/JJ	16cc\JJ	.	.	.	.	.	.
*Xtremolo	*Xtremolo	*Xtremolo	*	*	*	*	*	*
!	!	!LO:TX:a:t=P:problem=mixed beam	!	!	!	!	!	!
8E\L	8g#X/L	8b\L	.	.	.	.	.	8r
8E\	8e/J	8e/J	.	.	.	.	.	16ee\LL
.	.	.	.	.	.	.	.	16ee\JJ
8G#X\	8r	8r	.	.	.	.	.	8ee\L
8E\J	8b\	8b\	.	.	.	.	.	8ee\J
!LO:LB:g=original	!LO:LB:g=original	!	!	!	!	!	!	!
=20	=20	=20	=20	=20	=20	=20	=20	=20
8A\L	(>32cc#\LLL	(>32cc#X\LLL	.	.	.	.	1ryy	4ee\
.	32b\J	32b\J	.	.	.	.	.	.
.	16a'>\)	16a'>\	.	.	.	.	.	.
8A\	16a'>\	16a'>\	.	.	.	.	.	.
.	16a'>\JJ	16a'>\JJ)	.	.	.	.	.	.
*	*tremolo	*	*	*	*	*	*	*
8G\	16a/LL	(>16a'>\LL	.	.	.	.	.	4r
.	16a/	16a'>\	.	.	.	.	.	.
8G\J	16a/	16a'>\	.	.	.	.	.	.
.	16a/JJ	16a'>\JJ)	.	.	.	.	.	.
*	*Xtremolo	*	*	*	*	*	*	*
8F#\L	32cc#\LLL	(>32cc#\LLL	.	.	.	.	.	4ee\
.	32b\J	32b\J	.	.	.	.	.	.
.	16a'>\	16a'>\	.	.	.	.	.	.
8F#\	16a'>\	16a'>\	.	.	.	.	.	.
.	16a'>\JJ	16a'>\JJ)	.	.	.	.	.	.
*	*tremolo	*	*	*	*	*	*	*
8C#\	16a/LL	(>16a'>\LL	.	.	.	.	.	4r
.	16a/	16a'>\	.	.	.	.	.	.
8C#\J	16a/	16a'>\	.	.	.	.	.	.
.	16a/JJ	16a'>\JJ)	.	.	.	.	.	.
*	*Xtremolo	*	*	*	*	*	*	*
=21	=21	=21	=21	=21	=21	=21	=21	=21
!LO:TX:a:t=P:problem=mixed beam	!	!	!	!	!	!	!	!
8D\L	8ff#\L	8ff#\L	1r	.	1r	.	1ryy	2r
8D\	8ff#\J	8ff#\J	.	.	.	.	.	.
8E\	16ee\LL	16ee\LL	.	.	.	.	.	.
.	16dd\	16dd\	.	.	.	.	.	.
8EE/J	16cc#\	16cc#\	.	.	.	.	.	.
.	16b\JJ	16b\JJ	.	.	.	.	.	.
8AA/L	8a/L	8a/L	.	.	.	.	.	8r
16AA/L	16A/L	16A/L	.	.	.	.	.	16ee\LL
16AA/JJ	16A/JJ	16A/JJ	.	.	.	.	.	16ee\JJ
4AA/	4A/	4A/	.	.	.	.	.	4ee\
!	!	!LO:PB:g=original	!LO:LB:g=original	!	!	!	!	!
=22	=22	=22	=22	=22	=22	=22	=22	=22
!	!LO:TX:a:t=P:problem=mixed beam	!LO:TX:a:t=P:problem=mixed beam	!	!	!	!	!	!
16AA/LL	8aa\L	8aa\L	4A\	Do-	4cc#\	Do-	1ryy	4ee\
16BB/	.	.	.	.	.	.	.	.
16C#/	8a/J	8a/J	.	.	.	.	.	.
16BB/JJ	.	.	.	.	.	.	.	.
8AA/L	16a/LL	16a\LL	4A\	-mus	4cc#\	-mus	.	4r
.	16cc#/	16cc#\	.	.	.	.	.	.
8AA/J	16b/	16b\	.	.	.	.	.	.
.	16a/JJ	16a\JJ	.	.	.	.	.	.
16AA/LL	16ee\LL	16ee\LL	8A\	au-	8cc#\	au-	.	4ee\
16BB/	16cc#\J	16cc#\J	.	.	.	.	.	.
16C#/	8a\J	[>8a\J	8A\	-re-	8cc#\	-re-	.	.
16BB/JJ	.	.	.	.	.	.	.	.
8AA/L	16a\LL	16a\LL]	4A\	-a	4cc#\	-a	.	4r
.	16cc#\	16cc#\	.	.	.	.	.	.
8AA/J	16b\	16b\	.	.	.	.	.	.
.	16a\JJ	16a\JJ	.	.	.	.	.	.
=23	=23	=23	=23	=23	=23	=23	=23	=23
16E\LL	16b\LL	16b/LL	4G#X/	fe-	4b\	Fe-	1ryy	4ee\
16F#\	16g#X\J	16g#X/J	.	.	.	.	.	.
!	!	!LO:SIC:s=8e:v	!	!	!	!	!	!
16G#X\	8e\J	[<8f#/J	.	.	.	.	.	.
16F#\JJ	.	.	.	.	.	.	.	.
!	!LO:TX:a:t=P:problem=mixed beam	!LLO:TX:a:t=P:problem=mixed beam	!	!	!	!	!	!
!	!	!LO:SIC:s=16e:v	!	!	!	!	!	!
8E\L	16e/LL	16f#/LL]	8G#/	-de-	8b\	-de-	.	4r
.	16dd\	16dd\	.	.	.	.	.	.
8E\J	16cc#\	16cc#\	8G#/	-ris	8b\	-ris	.	.
.	16b\JJ	16b\JJ	.	.	.	.	.	.
16AA/LL	16cc#\LL	16cc#\LL	4A\	ar-	4cc#\	ar-	.	8ee\L
16BB/	16b\J	16b\J	.	.	.	.	.	.
16C#/	8a\J	8a\J	.	.	.	.	.	16ee\L
16BB/JJ	.	.	.	.	.	.	.	16ee\JJ
8AA/L	8a/L	8a\L	4A\	-ca	4cc#\	-ca	.	4ee\
8AA/J	8a/J	8a\J	.	.	.	.	.	.
!	!	!	!	!	!LO:LB:g=original	!	!	!
=24	=24	=24	=24	=24	=24	=24	=24	=24
!	!LO:TX:a:t=P:problem=mixed beam	!LO:TX:a:t=P:problem=mixed beam	!	!	!	!	!	!
16BB/LL	8bb\L	8bb\L	4B\	Do-	4dd\	Do-	1ryy	4f#/
16C#/	.	.	.	.	.	.	.	.
16D/	8b/J	[<8b/J	.	.	.	.	.	.
16C#/JJ	.	.	.	.	.	.	.	.
8BB/L	16b\LL	16b\LL]	4B\	-mus	4dd\	-mus	.	4r
.	16dd\	16dd\	.	.	.	.	.	.
8BB/J	16cc#\	16cc#\	.	.	.	.	.	.
.	16b\JJ	16b\JJ	.	.	.	.	.	.
16BB/LL	16ff#\LL	16ff#\LL	4B\	au-	8dd\	au-	.	4f#/
16C#/	16dd\J	16dd\J	.	.	.	.	.	.
16D/	8b\J	[>8b\J	.	.	8dd\	-re-	.	.
16C#/JJ	.	.	.	.	.	.	.	.
8BB/L	16b\LL	16b\LL]	8B\	-re-	4dd\	-a	.	4r
.	16dd\	16dd\	.	.	.	.	.	.
8BB/J	16cc#\	16cc#\	8B\	-a	.	.	.	.
.	16b\JJ	16b\JJ	.	.	.	.	.	.
=25	=25	=25	=25	=25	=25	=25	=25	=25
!	!LO:N:vis=8	!	!	!	!	!	!	!
16F#\LL	16cc#\L	16cc#\LL	4A#X\	fe-	4cc#\	Fe-	1ryy	4f#/
!	!LO:TX:a:t=P:problem=w źródle nuta poprawiona przez skryptora	!	!	!	!	!	!	!
!	!LO:N:vis=8	!	!	!	!	!	!	!
16G#X\	16a#X\	16a#X\J	.	.	.	.	.	.
16A#X\	8f#\J	[>8f#\J	.	.	.	.	.	.
16G#\JJ	.	.	.	.	.	.	.	.
!	!LO:TX:a:t=P:problem=mixed beam	!	!	!	!	!	!	!
8F#\L	16f#/LL	16f#\LL]	8A#\	-de-	8cc#\	-de-	.	4r
.	16ee\	16ee\	.	.	.	.	.	.
8F#\J	16dd\	16dd\	8A#\	-ris	8cc#\	-ris	.	.
.	16cc#\JJ	16cc#\JJ	.	.	.	.	.	.
16BB/LL	16dd\LL	16dd\LL	4B\	ar-	4dd\	ar-	.	8f#/L
16C#/	16cc#\J	16cc#\J	.	.	.	.	.	.
16D/	8b\J	8b\J	.	.	.	.	.	16f#/L
16C#/JJ	.	.	.	.	.	.	.	16f#/JJ
!LO:LB:g=original	!	!	!	!	!	!	!	!
8BB/L	16b\LL	16b\LL	4B\	-ca	4dd\	-ca	.	4f#/
.	16dd\	16dd\	.	.	.	.	.	.
8BB/J	16ff#\	16ff#\	.	.	.	.	.	.
.	16bb\JJ	16bb\JJ	.	.	.	.	.	.
!	!LO:LB:g=original	!	!	!	!	!	!	!
=26	=26	=26	=26	=26	=26	=26	=26	=26
!	!LO:SIC:s=8dd#:v	!	!	!	!	!	!	!
16BB/LL	8dd\L	8ff#\L	4d#X\	Je-	4ff#\	Ja-	1ryy	1r
16C#/	.	.	.	.	.	.	.	.
16D#X/	8b\J	8b\J	.	.	.	.	.	.
16C#/JJ	.	.	.	.	.	.	.	.
!	!LO:SIC:s=16dd#:v	!	!	!	!	!	!	!
8BB/L	16dd\LL	16ff#\LL	8d#\	-nu-	8ff#\	-nu-	.	.
.	16ff#\	16aa\	.	.	.	.	.	.
8BB/J	16ee\	16gg\	8d#\	-a	8ff#\	-a	.	.
.	16dd#X\JJ	16ff#\JJ	.	.	.	.	.	.
16E\LL	4ee\	16gg\LL	4e\	ce-	4gg\	ce-	.	.
16F#\	.	16ee\	.	.	.	.	.	.
16G\	.	16ff#\	.	.	.	.	.	.
16A\JJ	.	16gg\JJ	.	.	.	.	.	.
!LO:TX:a:t=P:problem=mixed beam	!	!	!	!	!	!	!	!
8B\L	4dd#\	4ff#\	4d#X\	-li	4ff#\	-li	.	.
8BB/J	.	.	.	.	.	.	.	.
!	!	!	!LO:LB:g=original	!	!	!	!	!
=27	=27	=27	=27	=27	=27	=27	=27	=27
16AA/LL	8cc#\L	8ee\L	8c#\	ſtel-	8ee\	ſtel-	1ryy	8ee\L
16BB/	.	.	.	.	.	.	.	.
16C#/	8a\J	8a\J	8c#\	-la	8ee\	-la	.	8ee\
16BB/JJ	.	.	.	.	.	.	.	.
8AA/L	16cc#\LL	16ee\LL	8c#\	ma-	8ee\	ma-	.	8ee\
.	16ee\	16gg\	.	.	.	.	.	.
8AA/J	16ddn\	16ff#\	8c#\	-tu-	8ee\	-tu-	.	8ee\J
.	16cc#\JJ	16ee\JJ	.	.	.	.	.	.
16D\LL	4dd\	16ff#\LL	4dn\	-ti-	4ff#\	-ti-	.	4ff#\
16E\	.	16dd\	.	.	.	.	.	.
16F#\	.	16ee\	.	.	.	.	.	.
16G\JJ	.	16ff#\JJ	.	.	.	.	.	.
!LO:TX:a:t=P:problem=mixed beam	!	!	!	!	!	!	!	!
8A\L	4cc#\	4ee\	4c#\	-na	4ee\	-na	.	4ee\
8AA/J	.	.	.	.	.	.	.	.
!	!	!	!	!	!	!	!	!LO:LB:g=original
=28	=28	=28	=28	=28	=28	=28	=28	=28
16D\LL	8ddd\L	8ddd\L	4d\	o-	4ff#\	o-	1ryy	4ff#\
16E\	.	.	.	.	.	.	.	.
16F#\	8dd\J	8dd\J	.	.	.	.	.	.
16E\JJ	.	.	.	.	.	.	.	.
8D\L	16dd\LL	16dd\LL	8d\	-ra	8ff#\	-ra	.	4r
.	16ff#\	16ff#\	.	.	.	.	.	.
8D\J	16ee\	16ee\	8d\	pro	8ff#\	pro	.	.
.	16dd\JJ	16dd\JJ	.	.	.	.	.	.
16D\LL	16aa\LL	16aa\LL	4d\	no-	4ff#\	no-	.	4ff#\
16E\	16ff#\J	16ff#\J	.	.	.	.	.	.
16F#\	8dd\J	8dd\J	.	.	.	.	.	.
16E\JJ	.	.	.	.	.	.	.	.
8D\L	16dd\LL	16dd\LL	4d\	-bis	4ff#\	-bis	.	8r
.	16ff#\	16ff#\	.	.	.	.	.	.
8D\J	16ee\	16ee\	.	.	.	.	.	8ff#\
.	16dd\JJ	16dd\JJ	.	.	.	.	.	.
!	!	!LO:LB:g=original	!	!	!	!	!	!
=29	=29	=29	=29	=29	=29	=29	=29	=29
*	*	*	*	*ij	*	*	*	*
16A\LL	16ee\LL	16ee\LL	4c#\	o-	4ee\	o-	1ryy	4ee\
16B\	16cc#\J	16cc#\J	.	.	.	.	.	.
16c#\	8a\J	8a\J	.	.	.	.	.	.
16B\JJ	.	.	.	.	.	.	.	.
!	!	!LO:TX:a:t=P:problem=mixed beam	!	!	!	!	!	!
8A\L	16a\LL	16a/LL	8c#\	-ra	8ee\	-ra	.	8r
.	16gg\	16gg\	.	.	.	.	.	.
8A\J	16ff#\	16ff#\	8c#\	pro	8ee\	pro	.	8ee\
.	16ee\JJ	16ee\JJ	.	.	.	.	.	.
!	!	!LO:TX:a:t=P:problem=w źródle dodatkowa kreska taktowa	!	!	!	!	!	!
16D\LL	16ff#\LL	16ff#\LL	4d\	no-	4ff#\	no-	.	4ff#\
16E\	16ee\J	16ee\J	.	.	.	.	.	.
16F#\	8dd\J	8dd\J	.	.	.	.	.	.
16E\JJ	.	.	.	.	.	.	.	.
8D\L	16dd\LL	16dd\LL	4d\	-bis	4ff#\	-bis	.	8r
.	16ff#\	16ff#\	.	.	.	.	.	.
8D\J	16ee\	16ee\	.	.	.	.	.	8ff#\
.	16dd\JJ	16dd\JJ	.	.	.	.	.	.
*	*	*	*	*Xij	*	*	*	*
!	!	!	!	!	!LO:LB:g=original	!	!	!
=30	=30	=30	=30	=30	=30	=30	=30	=30
16A\LL	16ee\LL	16ee\LL	4c#\	o-	4ee\	o-	1ryy	4ee\
16B\	16cc#\J	16cc#\J	.	.	.	.	.	.
16c#\	8a\J	8a\J	.	.	.	.	.	.
16B\JJ	.	.	.	.	.	.	.	.
!	!LO:TX:a:t=P:problem=mixed beam	!LO:TX:a:t=P:problem=mixed beam	!	!	!	!	!	!
8A\L	16a/LL	16a/LL	8c#\	-ra	8ee\	-ra	.	8r
.	16gg\	16gg\	.	.	.	.	.	.
8A\J	16ff#\	16ff#\	8c#\	pro	8ee\	pro	.	8ee\
.	16ee\JJ	16ee\JJ	.	.	.	.	.	.
16D\LL	16ff#\LL	16ff#\LL	4d\	no-	4ff#\	no-	.	16ff#\LL
16E\	16ee\J	16ee\J	.	.	.	.	.	16gg\
16F#\	8dd\J	8dd\J	.	.	.	.	.	16ff#\
16E\JJ	.	.	.	.	.	.	.	16gg\JJ
8D\L	4r	4r	4d\	-bis	4ff#\	-bis	.	16aa\LL
.	.	.	.	.	.	.	.	16gg\J
8D\J	.	.	.	.	.	.	.	8ff#\J
!LO:LB:g=original	!	!	!	!	!	!	!	!
=31	=31	=31	=31	=31	=31	=31	=31	=31
!LO:SIC:s=8G#:v	!	!	!	!	!	!	!	!
8G\L	8dd\L	8ffn\L	4d\	Je-	4ffn\	Ja-	1ryy	2r
!LO:SIC:s=8G#:v	!	!	!	!	!	!	!	!
8G\	8dd\	8ff\	.	.	.	.	.	.
!LO:SIC:s=8G#:v	!	!	!	!	!	!	!	!
8G\	8dd\	8ff\	8d\	-nu-	8ff\	-nu-	.	.
!LO:SIC:s=8G#:v	!	!	!	!	!	!	!	!
8G\J	8dd\J	8ff\J	8d\	-a	8ff\	-a	.	.
!LO:TX:a:t=P:problem=mixed beam	!	!	!	!	!	!	!	!
8A\L	16cc#\LL	16ee\LL	4c#\	Ce-	4ee\	ce-	.	8ee\L
.	16a\	16a\	.	.	.	.	.	.
8AA/	(>16aa\	(>16aa\	.	.	.	.	.	16ee\L
.	16gg#X\JJ)	16gg#X\JJ)	.	.	.	.	.	16ee\JJ
8AA/	16aa\LL	(>16aa\LL	4c#\	-li	4ee\	-li	.	4ee\
.	16gg#\J	16gg#X\J)	.	.	.	.	.	.
8AA/J	8aa\J	8aa\J	.	.	.	.	.	.
!	!	!	!LO:LB:g=original	!	!	!	!	!
=32	=32	=32	=32	=32	=32	=32	=32	=32
*	*tremolo	*tremolo	*	*	*	*	*	*
!LO:SIC:s=8G#:v	!	!	!	!	!	!	!	!
8G\L	16dd\LL	16ffn\LL	8d\	ſtel-	8ffn\	ſtel-	1ryy	2r
.	16dd\	16ffn\	.	.	.	.	.	.
!LO:SIC:s=8G#:v	!	!	!	!	!	!	!	!
8G\	16dd\	16ffn\	8d\	-la	8ff\	-la	.	.
.	16dd\JJ	16ffn\JJ	.	.	.	.	.	.
!LO:SIC:s=8G#:v	!	!	!	!	!	!	!	!
8G\	16dd\LL	16ff\LL	8d\	ma-	8ff\	ma-	.	.
.	16dd\	16ff\	.	.	.	.	.	.
!LO:SIC:s=8G#:v	!	!	!	!	!	!	!	!
8G\J	16dd\	16ff\	8d\	-tu-	8ff\	-tu-	.	.
.	16dd\JJ	16ff\JJ	.	.	.	.	.	.
*	*Xtremolo	*Xtremolo	*	*	*	*	*	*
!LO:TX:a:t=P:problem=mixed beam	!	!	!	!	!	!	!	!
8A\L	8cc#\L	8ee\L	4c#\	-ti-	4ee\	-ti-	.	8ee\L
8AA/	8a\J	8a\J	.	.	.	.	.	16ee\L
.	.	.	.	.	.	.	.	16ee\JJ
8C#/	8r	8r	4c#\	-na	4ee\	-na	.	8ee\L
8AA/J	8ee\	8dd\	.	.	.	.	.	8ee\J
!	!LO:LB:g=original	!	!	!	!	!	!	!
=33	=33	=33	=33	=33	=33	=33	=33	=33
8D\L	(>32ff#\LLL	(>32ff#X\LLL	4d\	o-	4ff#X\	o-	1ryy	16ff#\LL
.	32ee\J	32ee\J)	.	.	.	.	.	.
.	16dd'>\)	(>16dd'>\	.	.	.	.	.	16gg\
8d\	16dd'>\	16dd'>\	.	.	.	.	.	16ff#\
.	16dd'>\JJ	16dd'>\JJ)	.	.	.	.	.	16gg\JJ
*	*tremolo	*tremolo	*	*	*	*	*	*
8c#\	16dd\LL	16dd\LL	4d\	-ra	4ff#\	-ra	.	16aa\LL
.	16dd\	16dd\	.	.	.	.	.	16gg\
8c#\J	16dd\	16dd\	.	.	.	.	.	16aa\
.	16dd\JJ	16dd\JJ	.	.	.	.	.	16gg\JJ
*	*Xtremolo	*Xtremolo	*	*	*	*	*	*
8B\L	(>32ff#\LLL	(>32ff#\LLL	4d\	o-	4ff#\	o-	.	16ff#\LL
.	32ee\J	32ee\J)	.	.	.	.	.	.
.	16dd'>\)	(>16dd'>\	.	.	.	.	.	16gg\
8B\	16dd'>\	16dd'>\	.	.	.	.	.	16ff#\
.	16dd'>\JJ	16dd'>\JJ)	.	.	.	.	.	16gg\JJ
*	*tremolo	*tremolo	*	*	*	*	*	*
8F#\	16dd\LL	16dd\LL	4d\	-ra	4ff#\	-ra	.	16aa\LL
.	16dd\	16dd\	.	.	.	.	.	16gg\
8F#\J	16dd\	16dd\	.	.	.	.	.	16aa\
.	16dd\JJ	16dd\JJ	.	.	.	.	.	16gg\JJ
*	*Xtremolo	*Xtremolo	*	*	*	*	*	*
=34	=34	=34	=34	=34	=34	=34	=34	=34
!LO:TX:a:t=P:problem=mixed beam	!	!	!	!	!	!	!	!
8G\L	8bb\L	8bb\L	4d\	pro	4b\	pro	1ryy	8ee\L
8G\	8bb\J	8bb\J	.	.	.	.	.	8ee\
8A\	16aa\LL	16aa\LL	4e\	no-	4cc#\	no-	.	8ee\
.	16gg\	16gg\	.	.	.	.	.	.
8AA/J	16ff#\	16ff#\	.	.	.	.	.	8ee\J
.	16ee\JJ	16ee\JJ	.	.	.	.	.	.
!	!LO:TX:a:t=P:problem=mixed beam	!LO:TX:a:t=P:problem=mixed beam	!	!	!	!	!	!
8D\L	8dd\L	8dd\L	4f#\	-bis	4dd\	-bis	.	8ff#\L
16D\L	16d/L	16d/L	.	.	.	.	.	16ff#\L
16D\JJ	16d/JJ	16d/JJ	.	.	.	.	.	16ff#\JJ
4D\	4d/	4d/	4r	.	4r	.	.	4ff#\
*2\left	*	*	*	*	*	*	*	*
!LO:SIC:o=&colon;||&colon;:v:t=ozdobna kreska taktowa &colon;||&colon;	!LO:SIC:o=&colon;||&colon;:v:t=ozdobna kreska taktowa &colon;||&colon;	!LO:SIC:o=&colon;||&colon;:v:t=ozdobna kreska taktowa &colon;||&colon;	!	!	!	!	!	!LO:SIC:o=&colon;||&colon;:v:t=ozdobna kreska taktowa &colon;||&colon;
==	==	==	==	==	==	==	==	==
*-	*-	*-	*-	*-	*-	*-	*-	*-
!!!system-decoration: [(s1,s2)][(s3,s4)][(s5,s6)]s7
!!!RDF**kern: > = above
!!!RDF**kern: < = below
!!!EED: Wojciech Jakubiak-Danek
!!!EEV: 2020-10-14
!!!ENC: Krzysztof Stępień
!!!END: 2020-05-21
!!!YEC: Copyright 2022 Narodowy Instytut Fryderyka Chopina (https://polishscores.org)
!!!YEM: License CC-BY-4.0 (https://creativecommons.org/licenses/by/4.0)
